Adwaita++/actions/22/dialog-cancel.svg

<svg fill="none" height="22" viewBox="0 0 22 22" width="22" xmlns="http://www.w3.org/2000/svg">
  <path d="m3.00609 3.00047h1.99996c.02074-.00024.04158-.00092.0625 0 .50989.0224 1.01972.25715 1.37497.62498l4.56228 4.56228 4.6249-4.56228c.5312-.46099.8933-.61098 1.375-.62498h1.9999v1.99995c0 .57293-.0686 1.10128-.4999 1.49997l-4.5623 4.56231 4.4999 4.4999c.3763.3763.5624.9069.5624 1.4374v2h-1.9999c-.5306 0-1.0612-.1862-1.4375-.5625l-4.5623-4.5623-4.56228 4.5623c-.37632.3764-.9069.5625-1.43747.5625h-1.99996v-2c0-.5305.18612-1.0611.56249-1.4374l4.5623-4.4999-4.5623-4.56231c-.42147-.38925-.60631-.93848-.56249-1.49997v-1.99995z" fill="#444"/>
</svg>

<svg xmlns="http://www.w3.org/2000/svg" fill="none" width="22" height="22" viewBox="0 0 22 22">
 <path fill="#444" d="M3.00609 3.00047H5.00605C5.02679 3.00023 5.04763 2.99955 5.06855 3.00047C5.57844 3.02287 6.08827 3.25762 6.44352 3.62545L11.0058 8.18773L15.6307 3.62545C16.1619 3.16446 16.524 3.01447 17.0057 3.00047H19.0056V5.00042C19.0056 5.57335 18.937 6.1017 18.5057 6.50039L13.9434 11.0627L18.4433 15.5626C18.8196 15.9389 19.0057 16.4695 19.0057 17V19H17.0058C16.4752 19 15.9446 18.8138 15.5683 18.4375L11.006 13.8752L6.44372 18.4375C6.0674 18.8139 5.53682 19 5.00625 19H3.00629V17C3.00629 16.4695 3.19241 15.9389 3.56878 15.5626L8.13108 11.0627L3.56878 6.50039C3.14731 6.11114 2.96247 5.56191 3.00629 5.00042V3.00047H3.00609Z"/>
</svg>
